X: 0404
T: Kenmure's On and Awa'
P: Kenmure's On and Awa'
C:Johnson's Musical Museum 1792
R:Jig (8x24) ABB
B:RSCDS 4-4
Z:Anselm Lingnau <anselm@strathspey.org>
M:6/8
L:1/8
K:G
B/A/|"G"G>AB gdB|d>ed "D7"dBA|"G"G>AB gdB|"A7"A>BA "D7"ABA|
     "G"G>AB gdB|def "C"gfe|"G"dcB "D7"cBA|"G"G>AG G2||
|:d|"G"g2d "C"ed"G"B|d>ed "D7"dba|"G"g2d "C"ed"G"B|"A7"A>BA "D7"A2d|
    "G"g2d edB|"G"def "C"gfe|"G"dcB "D7"cBA|"G"G>AG G2:|
%%center Book04/0404-Kenmures_On_and_Awa-AL.abc

%%sep 1 1 500
%%sep 1 1 500

